X: 1768
T: Old Woman From France
B: australian traditional tunes wiki
M:2/4
L:1/16
R: Set Tune
Q: 1/4=100
K:G
V:1 
|:AB|"D7"cBAG F3E|"G"E2D2 D3D|"D7"G2F2 A3B|"G"A2G2 G2AB|
"D7"cBAG F3E|"G"E2D2 D3D|"D7"G2F2 B3A|1"G"G6:|2"G"G6||!
|:BB|"G"B2c2 "D7"d2g2|"G"B4-B2BB|"C"c2c2 "D7"d2d2|"G"G4-G2BA|
G2B2 d2g2|b4-b2ag|"D7"f2a2 agfe|"G"d4-d2BB|!
|"G"B2c2 "D7"d2g2|"G"B4-B2cB|"Am"A2B2 c2d2|"C"e4-e4|
e4f3e|"G"e2d2 B2c2|"D7"d2dd b2a2|"G"g6||
% abcbook-tune_id 6342d53a845068ab9180bfbe


% abcbook-boost 0
% abcbook-tablature 
% abcbook-transpose 
% abcbook-lastupdated 1665324382684
% abcbook-soundfonts 
% abcbook-repeats 1
% NFF Book 2009

